!!!OTL: Ritter und Magd Es spielet ein Reiter mit seiner Madam,
!!!ARE: Europa, Osteuropa, UdSSR, Rossiya, Wolgagebiet
!!!YOR: 3, S. 63
!!    ????
!!!SCT: Q0055g
!!!YEM: Copyright 1995, estate of Helmut Schaffrath.
**kern
*ICvox
*Ivox
*M6/8
*k[f#]
*G:
{8d
=1
8.g
16g
8b
8a
8b
8cc
=2
8.dd
16ee
8cc
4.a
=3
4.r}
{4dd
8b
=4
8ee
8dd
8cc
8b
8a
8g
=5
4.b
4g}
{8b
=6
8.dd
16ee
8dd
4cc
8dd
=7
8b
8cc
8b
4.a
=8
4.r}
{4dd
8b
=9
4cc
8b
4a
8g
=10
4.b
4g}
==
!!!AGN: Ballade, Betrug, Schwangerschaft, Tod, Selbstmord, Herr und Magd
!! 12/8 - Taktwechsel in 6/8 geaendert. Tempowechsel; Verzierung
!!    (Vorschlag) in der zweiten Zeile.
!!!ONB: ESAC (Essen Associative Code) Database: BALLADE
!!!AMT: compound duple
!!!AIN: vox
!!!EED: Helmut Schaffrath
!!!EEV: 1.0
*-
